src/assets/images/eamode-logo.svg

<svg viewBox="0 0 151 48" xmlns="http://www.w3.org/2000/svg">
  <g fill="#FFF" fill-rule="evenodd">
    <path d="M16.99 14.65c-.028.057-.057.113-.057.198V32.48c0 .085.028.142.057.198 0 .057.028.113.085.142.028.028.085.057.113.085.057 0 .142.028.198.028H30.17a.507.507 0 0 0 .312-.085c.057-.028.085-.113.085-.198l.028-.028.028-.028c0-.028.028-.057.028-.057.028-.028.028-.057.028-.085v-3.175c0-.312-.142-.482-.454-.482h-8.589v-3.429h6.435c.057 0 .142 0 .17-.028a.63.63 0 0 0 .142-.085.405.405 0 0 0 .113-.283v-2.721c0-.085 0-.142-.028-.198-.028-.057-.057-.085-.085-.113a.218.218 0 0 0-.142-.057c-.057-.028-.113-.028-.198-.028h-6.406v-3.344H29.914c.085 0 .142-.028.227-.028.057-.028.085-.085.142-.142l.085-.17c.028-.057.028-.113.028-.17v-3.118c0-.085 0-.142-.028-.227a.63.63 0 0 0-.085-.142.469.469 0 0 0-.34-.142H17.387c-.057 0-.142.028-.198.028-.028.028-.085.057-.113.113a.15.15 0 0 0-.086.139zm22.366.085v.057h-.028l-6.86 17.773c0 .057-.028.113-.028.17.028.028.028.057.057.085a.63.63 0 0 1 .142.085c.057 0 .113.028.198.028h3.713a.612.612 0 0 0 .34-.113.515.515 0 0 0 .198-.283c.113-.255.17-.454.255-.652l.255-.652c.057-.198.142-.397.227-.624l.255-.652.028-.057H44.94l.028.057c.142.368.312.822.482 1.276l.255.652c.057.198.142.397.255.624v.028l.085.17c.028.057.085.085.113.113a.458.458 0 0 0 .17.085c.057 0 .142.028.227.028h3.6a.559.559 0 0 0 .255-.057c.085 0 .113-.028.17-.085.028-.028.028-.057.028-.113.028-.057 0-.113-.028-.17l-6.633-17.121-.312-.709c0-.028-.028-.057-.057-.085-.057-.028-.085-.057-.142-.113-.028-.028-.085-.057-.113-.085-.057 0-.113-.028-.17-.028h-3.231c-.028 0-.057 0-.085.028-.028 0-.057 0-.085.028-.057 0-.085.028-.113.028-.028.028-.057.057-.085.057l-.085.085-.057.057c-.028.029-.056.057-.056.085zm1.842 6.066c.085-.227.142-.454.227-.68l.113-.283.085.283 1.956 5.783.028.142H39.44l.057-.142c.057-.227.142-.454.227-.68.085-.255.17-.482.255-.709.085-.227.17-.482.227-.737.085-.227.17-.482.255-.765.085-.255.17-.482.227-.737l.255-.765c.085-.228.17-.483.255-.71z"/>
    <path d="M14.468.647h35.263c2.75 0 4.677 1.219 6.18 3.033 1.247 1.502 2.126 3.43 2.948 5.357 1.531 3.628 3.061 7.257 4.62 10.885 1.304 3.09 1.304 4.819 0 7.909-1.559 3.628-3.09 7.257-4.62 10.885-.822 1.928-1.701 3.855-2.948 5.357-1.502 1.814-3.43 3.033-6.18 3.033H14.468c-2.721 0-4.677-1.191-6.18-3.005-1.276-1.531-2.154-3.458-2.948-5.414-1.361-3.317-2.693-6.661-4.054-10.006-1.502-3.685-1.559-5.783-.057-9.496a1459.68 1459.68 0 0 0 4.11-10.12c.794-1.956 1.672-3.883 2.948-5.414C9.79 1.838 11.746.647 14.468.647zm35.263 4.819H14.468c-1.077 0-1.871.482-2.494 1.247-.879 1.049-1.559 2.58-2.183 4.139-1.502 3.685-3.005 7.398-4.507 11.083-.595 1.474-.482 2.636.113 4.11 1.446 3.628 2.92 7.228 4.394 10.857.624 1.559 1.304 3.09 2.183 4.139.624.765 1.417 1.247 2.494 1.247h35.263c1.077 0 1.843-.482 2.494-1.247.85-1.077 1.559-2.608 2.211-4.167 1.587-3.742 3.175-7.512 4.791-11.254.454-1.134.567-2.126.085-3.288-1.644-3.798-3.26-7.625-4.876-11.452-.652-1.559-1.361-3.09-2.211-4.167-.652-.765-1.417-1.247-2.494-1.247z" fill-rule="nonzero"/>
    <path d="M72.068 14.65c-.028.057-.057.113-.057.198L70.197 32.48c0 .142.057.255.113.34.057.057.17.113.34.113h3.572c.17 0 .283-.057.368-.113.085-.085.113-.198.142-.34v-.028l1.077-9.723.085-.539.142.51 2.835 9.78v.028c0 .028.028.057.057.113 0 .028.057.085.113.142.028.028.085.085.142.113.028 0 .057.028.085.028h3.317c.028 0 .085-.028.113-.028.028-.028.085-.085.142-.113a.63.63 0 0 1 .085-.142c.028-.057.057-.085.057-.113v-.028l2.835-9.808.17-.51.057.539 1.077 9.751v.028c.028.142.057.255.142.34a.627.627 0 0 0 .368.113h3.572c.17 0 .283-.057.34-.113.085-.057.113-.142.113-.283v-.057c-.142-1.474-.312-2.948-.454-4.422a225.49 225.49 0 0 0-.454-4.394c-.142-1.474-.312-2.92-.454-4.394-.142-1.474-.312-2.948-.454-4.422a.399.399 0 0 0-.057-.198c-.028-.057-.057-.085-.113-.142-.057-.057-.085-.085-.17-.085v-.028c-.028 0-.113-.028-.17-.028h-4.309c-.255 0-.454.142-.539.425l-3.458 11.452-.113.34-.113-.34-3.43-11.452c-.057-.283-.227-.425-.482-.425h-4.365a.527.527 0 0 0-.227.057c-.057 0-.085.028-.142.085-.028.056-.084.084-.084.141zM99.11 24.685a6.25 6.25 0 0 1 0-2.069c.057-.312.142-.652.283-.964.113-.312.255-.595.425-.879.17-.255.368-.51.567-.737.227-.255.454-.454.709-.624.283-.198.539-.34.85-.482a4.92 4.92 0 0 1 1.956-.397c.34 0 .709.028 1.02.085.34.085.652.17.935.312.312.142.595.283.85.482.255.17.482.368.709.624.227.227.397.482.567.737.17.283.312.567.454.879.113.312.198.652.255.964a6.26 6.26 0 0 1 0 2.069c-.057.34-.142.652-.255.964a5.908 5.908 0 0 1-.454.85c-.17.283-.34.539-.567.765a7.677 7.677 0 0 1-.709.624c-.255.17-.539.34-.85.454-.283.142-.595.227-.935.312a6.158 6.158 0 0 1-2.04 0c-.34-.085-.652-.17-.935-.312-.312-.113-.567-.283-.85-.454a7.392 7.392 0 0 1-.709-.624 5.42 5.42 0 0 1-.567-.765 3.972 3.972 0 0 1-.425-.85 3.78 3.78 0 0 1-.284-.964zm-4.422-3.572a9.537 9.537 0 0 0-.34 2.551c0 .454.028.879.085 1.304.057.425.142.822.255 1.247.113.397.255.794.397 1.191.17.368.34.737.567 1.077.198.34.425.68.68.992.255.34.51.652.794.935.312.283.595.567.935.794.312.255.652.482 1.02.709.34.198.709.368 1.077.539.397.17.794.283 1.191.397.822.227 1.672.34 2.551.34.425 0 .879-.028 1.304-.085.397-.057.822-.142 1.247-.255a5.613 5.613 0 0 0 1.162-.397c.397-.17.765-.34 1.106-.539a9.27 9.27 0 0 0 1.02-.709c.312-.227.624-.51.935-.794.283-.283.567-.595.794-.935.255-.312.482-.652.68-.992.227-.34.397-.709.567-1.106.142-.368.283-.765.397-1.162.113-.425.198-.822.255-1.247.057-.425.085-.85.085-1.304 0-.454-.028-.879-.085-1.304a8.55 8.55 0 0 0-.255-1.219 11.618 11.618 0 0 0-.397-1.191c-.17-.397-.34-.765-.567-1.106a6.352 6.352 0 0 0-.68-1.02c-.227-.34-.51-.624-.794-.935-.312-.283-.595-.567-.935-.794a6.396 6.396 0 0 0-1.02-.68c-.34-.227-.709-.397-1.106-.567a14.016 14.016 0 0 0-1.162-.397c-.425-.113-.85-.198-1.276-.255a9.28 9.28 0 0 0-1.276-.085c-.454 0-.879.028-1.304.085a9.852 9.852 0 0 0-1.247.255c-.397.113-.794.255-1.191.397-.368.17-.737.34-1.077.567a6.352 6.352 0 0 0-1.02.68c-.34.227-.624.51-.935.794a8.62 8.62 0 0 0-.794.935 6.396 6.396 0 0 0-.68 1.02c-.227.34-.397.709-.567 1.106-.169.369-.283.766-.396 1.163zm37.758 5.074c.227-.794.312-1.644.312-2.523 0-.425-.028-.85-.085-1.276a8.55 8.55 0 0 0-.255-1.219c-.113-.397-.227-.794-.397-1.162-.17-.369-.34-.737-.539-1.077-.227-.34-.454-.68-.68-.992-.255-.312-.539-.595-.822-.879a7.548 7.548 0 0 0-.907-.765h-.028a7.684 7.684 0 0 0-.992-.68 6.576 6.576 0 0 0-1.105-.51c-.369-.17-.765-.283-1.162-.397a9.537 9.537 0 0 0-2.551-.34h-6.208a.527.527 0 0 0-.227.057c-.057 0-.085.028-.142.085a.608.608 0 0 0-.085.142c0 .057-.028.142-.028.198v17.66c0 .17.057.283.142.312a.608.608 0 0 0 .142.085c.057 0 .142.028.198.028h6.208c.454 0 .879-.028 1.304-.085a9.852 9.852 0 0 0 1.247-.255c.397-.113.794-.227 1.191-.368.369-.17.737-.34 1.077-.539a8.754 8.754 0 0 0 1.02-.624c.312-.255.624-.51.907-.794a12 12 0 0 0 .822-.879c.227-.312.454-.652.68-.992.198-.34.397-.68.539-1.049.168-.368.31-.765.424-1.162zm-11.226 2.325v-9.807h1.785c.34 0 .68.028 1.02.085.34.057.652.17.964.283.312.113.595.255.879.454.255.17.51.369.737.567.227.227.454.482.624.737.198.255.34.539.482.85.142.283.227.624.312.935a6.25 6.25 0 0 1 0 2.041 4.545 4.545 0 0 1-.255.879 3.729 3.729 0 0 1-.425.822 4.442 4.442 0 0 1-1.247 1.276c-.227.17-.51.312-.765.454a4.585 4.585 0 0 1-.879.312 3.233 3.233 0 0 1-.935.142c-.198.028-.34.028-.51.057h-.311c-.113.028-.198.028-.312.028h-1.162v-.115h-.002zm15.081-13.862c0 .057-.028.113-.028.198V32.48c0 .085.028.142.028.198a.63.63 0 0 0 .085.142c.057.028.085.057.142.085.057 0 .142.028.198.028h12.784a.507.507 0 0 0 .312-.085c.057-.028.085-.113.085-.198v-.028l.028-.028.057-.057c.028-.028.028-.057.028-.085v-3.175c0-.312-.17-.482-.454-.482h-8.589v-3.429h6.406c.085 0 .142 0 .198-.028a.63.63 0 0 0 .142-.085c.057-.085.113-.198.113-.283v-2.721c0-.085-.028-.142-.028-.198-.028-.057-.057-.085-.085-.113-.057-.028-.085-.057-.142-.057-.057-.028-.142-.028-.198-.028h-6.406v-3.344H149.254c.085 0 .142-.028.198-.028.057-.028.113-.085.17-.142l.085-.17c.028-.057.028-.113.028-.17v-3.118c0-.085 0-.142-.028-.227a.63.63 0 0 0-.085-.142.489.489 0 0 0-.368-.142h-12.529c-.085 0-.142.028-.198.028a.219.219 0 0 0-.113.113c-.057.026-.085.082-.113.139z"/>
  </g>
</svg>

<svg width="100%" height="100%" viewBox="0 0 151 48" version="1.1" xmlns="http://www.w3.org/2000/svg" xmlns:xlink="http://www.w3.org/1999/xlink">
    <!-- Generator: Sketch 49.3 (51167) - http://www.bohemiancoding.com/sketch -->
    <desc>Created with Sketch.</desc>
    <defs></defs>
    <g id="Page-1" stroke="none" stroke-width="1" fill="none" fill-rule="evenodd">
        <g id="EA-Mode-04" fill="#FFFFFF">
            <path d="M16.99,14.65 C16.962,14.707 16.933,14.763 16.933,14.848 L16.933,32.48 C16.933,32.565 16.961,32.622 16.99,32.678 C16.99,32.735 17.018,32.791 17.075,32.82 C17.103,32.848 17.16,32.877 17.188,32.905 C17.245,32.905 17.33,32.933 17.386,32.933 L30.17,32.933 C30.312,32.933 30.397,32.905 30.482,32.848 C30.539,32.82 30.567,32.735 30.567,32.65 L30.595,32.622 L30.623,32.594 C30.623,32.566 30.651,32.537 30.651,32.537 C30.679,32.509 30.679,32.48 30.679,32.452 L30.679,29.277 C30.679,28.965 30.537,28.795 30.225,28.795 L21.721,28.795 L21.636,28.795 L21.636,28.682 L21.636,25.479 L21.636,25.366 L21.721,25.366 L28.071,25.366 C28.128,25.366 28.213,25.366 28.241,25.338 C28.298,25.31 28.354,25.281 28.383,25.253 C28.468,25.168 28.496,25.055 28.496,24.97 L28.496,22.249 C28.496,22.164 28.496,22.107 28.468,22.051 C28.44,21.994 28.411,21.966 28.383,21.938 C28.355,21.91 28.298,21.881 28.241,21.881 C28.184,21.853 28.128,21.853 28.043,21.853 L21.722,21.853 L21.637,21.853 L21.637,21.74 L21.637,18.622 L21.637,18.509 L21.722,18.509 L29.914,18.509 C29.999,18.509 30.056,18.481 30.141,18.481 C30.198,18.453 30.226,18.396 30.283,18.339 C30.311,18.282 30.34,18.226 30.368,18.169 C30.396,18.112 30.396,18.056 30.396,17.999 L30.396,14.881 C30.396,14.796 30.396,14.739 30.368,14.654 C30.34,14.597 30.311,14.541 30.283,14.512 C30.198,14.427 30.085,14.37 29.943,14.37 L17.387,14.37 C17.33,14.37 17.245,14.398 17.189,14.398 C17.161,14.426 17.104,14.455 17.076,14.511 C17.019,14.537 16.99,14.593 16.99,14.65 Z M39.356,14.735 C39.356,14.735 39.356,14.763 39.356,14.792 L39.328,14.792 L32.468,32.565 C32.468,32.622 32.44,32.678 32.44,32.735 C32.468,32.763 32.468,32.792 32.497,32.82 C32.554,32.848 32.61,32.877 32.639,32.905 C32.696,32.905 32.752,32.933 32.837,32.933 L36.55,32.933 C36.692,32.933 36.805,32.876 36.89,32.82 C36.975,32.764 37.06,32.65 37.088,32.537 C37.201,32.282 37.258,32.083 37.343,31.885 L37.598,31.233 C37.655,31.035 37.74,30.836 37.825,30.609 L38.08,29.957 L38.108,29.9 L38.165,29.9 L44.883,29.9 L44.94,29.9 L44.968,29.957 C45.11,30.325 45.28,30.779 45.45,31.233 L45.705,31.885 C45.762,32.083 45.847,32.282 45.96,32.509 L45.96,32.537 C45.988,32.594 46.017,32.65 46.045,32.707 C46.073,32.764 46.13,32.792 46.158,32.82 C46.186,32.848 46.243,32.877 46.328,32.905 C46.385,32.905 46.47,32.933 46.555,32.933 L50.155,32.933 C50.268,32.933 50.353,32.905 50.41,32.876 C50.495,32.876 50.523,32.848 50.58,32.791 C50.608,32.763 50.608,32.734 50.608,32.678 C50.636,32.621 50.608,32.565 50.58,32.508 L43.947,15.387 L43.635,14.678 C43.635,14.65 43.607,14.621 43.578,14.593 C43.521,14.565 43.493,14.536 43.436,14.48 C43.408,14.452 43.351,14.423 43.323,14.395 C43.266,14.395 43.21,14.367 43.153,14.367 L39.922,14.367 C39.894,14.367 39.865,14.367 39.837,14.395 C39.809,14.395 39.78,14.395 39.752,14.423 C39.695,14.423 39.667,14.451 39.639,14.451 C39.611,14.479 39.582,14.508 39.554,14.508 C39.526,14.536 39.497,14.565 39.469,14.593 C39.441,14.621 39.412,14.65 39.412,14.65 C39.384,14.679 39.356,14.707 39.356,14.735 Z M41.198,20.801 C41.283,20.574 41.34,20.347 41.425,20.121 L41.538,19.838 L41.623,20.121 L43.579,25.904 L43.607,26.046 L43.465,26.046 L39.582,26.046 L39.44,26.046 L39.497,25.904 C39.554,25.677 39.639,25.45 39.724,25.224 C39.809,24.969 39.894,24.742 39.979,24.515 C40.064,24.288 40.149,24.033 40.206,23.778 C40.291,23.551 40.376,23.296 40.461,23.013 C40.546,22.758 40.631,22.531 40.688,22.276 L40.943,21.511 C41.028,21.283 41.113,21.028 41.198,20.801 Z" id="Shape"></path>
            <path d="M14.468,0.647 C26.232,0.647 37.996,0.647 49.731,0.647 C52.481,0.647 54.408,1.866 55.911,3.68 C57.158,5.182 58.037,7.11 58.859,9.037 C60.39,12.665 61.92,16.294 63.479,19.922 C64.783,23.012 64.783,24.741 63.479,27.831 C61.92,31.459 60.389,35.088 58.859,38.716 C58.037,40.644 57.158,42.571 55.911,44.073 C54.409,45.887 52.481,47.106 49.731,47.106 C37.996,47.106 26.232,47.106 14.468,47.106 C11.747,47.106 9.791,45.915 8.288,44.101 C7.012,42.57 6.134,40.643 5.34,38.687 C3.979,35.37 2.647,32.026 1.286,28.681 C-0.216,24.996 -0.273,22.898 1.229,19.185 C2.618,15.812 3.979,12.439 5.339,9.065 C6.133,7.109 7.011,5.182 8.287,3.651 C9.79,1.838 11.746,0.647 14.468,0.647 Z M49.731,5.466 C37.996,5.466 26.232,5.466 14.468,5.466 C13.391,5.466 12.597,5.948 11.974,6.713 C11.095,7.762 10.415,9.293 9.791,10.852 C8.289,14.537 6.786,18.25 5.284,21.935 C4.689,23.409 4.802,24.571 5.397,26.045 C6.843,29.673 8.317,33.273 9.791,36.902 C10.415,38.461 11.095,39.992 11.974,41.041 C12.598,41.806 13.391,42.288 14.468,42.288 C26.232,42.288 37.996,42.288 49.731,42.288 C50.808,42.288 51.574,41.806 52.225,41.041 C53.075,39.964 53.784,38.433 54.436,36.874 C56.023,33.132 57.611,29.362 59.227,25.62 C59.681,24.486 59.794,23.494 59.312,22.332 C57.668,18.534 56.052,14.707 54.436,10.88 C53.784,9.321 53.075,7.79 52.225,6.713 C51.573,5.948 50.808,5.466 49.731,5.466 Z" id="Shape" fill-rule="nonzero"></path>
            <path d="M72.068,14.65 C72.04,14.707 72.011,14.763 72.011,14.848 L70.197,32.48 C70.197,32.622 70.254,32.735 70.31,32.82 C70.367,32.877 70.48,32.933 70.65,32.933 L74.222,32.933 C74.392,32.933 74.505,32.876 74.59,32.82 C74.675,32.735 74.703,32.622 74.732,32.48 L74.732,32.452 L75.809,22.729 L75.894,22.19 L76.036,22.7 L78.871,32.48 L78.871,32.508 C78.871,32.536 78.899,32.565 78.928,32.621 C78.928,32.649 78.985,32.706 79.041,32.763 C79.069,32.791 79.126,32.848 79.183,32.876 C79.211,32.876 79.24,32.904 79.268,32.904 L82.585,32.904 C82.613,32.904 82.67,32.876 82.698,32.876 C82.726,32.848 82.783,32.791 82.84,32.763 C82.868,32.706 82.897,32.65 82.925,32.621 C82.953,32.564 82.982,32.536 82.982,32.508 L82.982,32.48 L85.817,22.672 L85.987,22.162 L86.044,22.701 L87.121,32.452 L87.121,32.48 C87.149,32.622 87.178,32.735 87.263,32.82 C87.348,32.877 87.461,32.933 87.631,32.933 L91.203,32.933 C91.373,32.933 91.486,32.876 91.543,32.82 C91.628,32.763 91.656,32.678 91.656,32.537 L91.656,32.48 C91.514,31.006 91.344,29.532 91.202,28.058 C91.06,26.584 90.919,25.138 90.748,23.664 C90.606,22.19 90.436,20.744 90.294,19.27 C90.152,17.796 89.982,16.322 89.84,14.848 C89.84,14.763 89.812,14.706 89.783,14.65 C89.755,14.593 89.726,14.565 89.67,14.508 C89.613,14.451 89.585,14.423 89.5,14.423 L89.5,14.395 C89.472,14.395 89.387,14.367 89.33,14.367 L85.021,14.367 C84.766,14.367 84.567,14.509 84.482,14.792 L81.024,26.244 L80.911,26.584 L80.798,26.244 L77.368,14.792 C77.311,14.509 77.141,14.367 76.886,14.367 L72.521,14.367 C72.436,14.367 72.351,14.395 72.294,14.424 C72.237,14.424 72.209,14.452 72.152,14.509 C72.124,14.565 72.068,14.593 72.068,14.65 Z M99.11,24.685 C99.053,24.345 99.025,24.005 99.025,23.636 C99.025,23.296 99.053,22.956 99.11,22.616 C99.167,22.304 99.252,21.964 99.393,21.652 C99.506,21.34 99.648,21.057 99.818,20.773 C99.988,20.518 100.186,20.263 100.385,20.036 C100.612,19.781 100.839,19.582 101.094,19.412 C101.377,19.214 101.633,19.072 101.944,18.93 C102.539,18.675 103.191,18.533 103.9,18.533 C104.24,18.533 104.609,18.561 104.92,18.618 C105.26,18.703 105.572,18.788 105.855,18.93 C106.167,19.072 106.45,19.213 106.705,19.412 C106.96,19.582 107.187,19.78 107.414,20.036 C107.641,20.263 107.811,20.518 107.981,20.773 C108.151,21.056 108.293,21.34 108.435,21.652 C108.548,21.964 108.633,22.304 108.69,22.616 C108.747,22.956 108.775,23.296 108.775,23.636 C108.775,24.004 108.747,24.345 108.69,24.685 C108.633,25.025 108.548,25.337 108.435,25.649 C108.293,25.961 108.152,26.244 107.981,26.499 C107.811,26.782 107.641,27.038 107.414,27.264 C107.187,27.49 106.96,27.689 106.705,27.888 C106.45,28.058 106.166,28.228 105.855,28.342 C105.572,28.484 105.26,28.569 104.92,28.654 C104.58,28.711 104.24,28.739 103.9,28.739 C103.56,28.739 103.191,28.711 102.88,28.654 C102.54,28.569 102.228,28.484 101.945,28.342 C101.633,28.229 101.378,28.059 101.095,27.888 C100.84,27.69 100.613,27.491 100.386,27.264 C100.188,27.037 99.989,26.782 99.819,26.499 C99.649,26.244 99.507,25.96 99.394,25.649 C99.252,25.337 99.167,25.025 99.11,24.685 Z M94.688,21.113 C94.461,21.935 94.348,22.785 94.348,23.664 C94.348,24.118 94.376,24.543 94.433,24.968 C94.49,25.393 94.575,25.79 94.688,26.215 C94.801,26.612 94.943,27.009 95.085,27.406 C95.255,27.774 95.425,28.143 95.652,28.483 C95.85,28.823 96.077,29.163 96.332,29.475 C96.587,29.815 96.842,30.127 97.126,30.41 C97.438,30.693 97.721,30.977 98.061,31.204 C98.373,31.459 98.713,31.686 99.081,31.913 C99.421,32.111 99.79,32.281 100.158,32.452 C100.555,32.622 100.952,32.735 101.349,32.849 C102.171,33.076 103.021,33.189 103.9,33.189 C104.325,33.189 104.779,33.161 105.204,33.104 C105.601,33.047 106.026,32.962 106.451,32.849 C106.848,32.764 107.245,32.622 107.613,32.452 C108.01,32.282 108.378,32.112 108.719,31.913 C109.087,31.686 109.428,31.459 109.739,31.204 C110.051,30.977 110.363,30.694 110.674,30.41 C110.957,30.127 111.241,29.815 111.468,29.475 C111.723,29.163 111.95,28.823 112.148,28.483 C112.375,28.143 112.545,27.774 112.715,27.377 C112.857,27.009 112.998,26.612 113.112,26.215 C113.225,25.79 113.31,25.393 113.367,24.968 C113.424,24.543 113.452,24.118 113.452,23.664 C113.452,23.21 113.424,22.785 113.367,22.36 C113.31,21.935 113.225,21.538 113.112,21.141 C112.999,20.716 112.857,20.319 112.715,19.95 C112.545,19.553 112.375,19.185 112.148,18.844 C111.95,18.476 111.723,18.135 111.468,17.824 C111.241,17.484 110.958,17.2 110.674,16.889 C110.362,16.606 110.079,16.322 109.739,16.095 C109.427,15.84 109.087,15.613 108.719,15.415 C108.379,15.188 108.01,15.018 107.613,14.848 C107.245,14.706 106.848,14.565 106.451,14.451 C106.026,14.338 105.601,14.253 105.175,14.196 C104.778,14.139 104.325,14.111 103.899,14.111 C103.445,14.111 103.02,14.139 102.595,14.196 C102.17,14.253 101.773,14.338 101.348,14.451 C100.951,14.564 100.554,14.706 100.157,14.848 C99.789,15.018 99.42,15.188 99.08,15.415 C98.712,15.613 98.371,15.84 98.06,16.095 C97.72,16.322 97.436,16.605 97.125,16.889 C96.842,17.172 96.586,17.484 96.331,17.824 C96.076,18.136 95.849,18.476 95.651,18.844 C95.424,19.184 95.254,19.553 95.084,19.95 C94.915,20.319 94.801,20.716 94.688,21.113 Z M132.446,26.187 C132.673,25.393 132.758,24.543 132.758,23.664 C132.758,23.239 132.73,22.814 132.673,22.388 C132.616,21.963 132.531,21.566 132.418,21.169 C132.305,20.772 132.191,20.375 132.021,20.007 C131.851,19.638 131.681,19.27 131.482,18.93 C131.255,18.59 131.028,18.25 130.802,17.938 C130.547,17.626 130.263,17.343 129.98,17.059 C129.697,16.776 129.385,16.52 129.073,16.294 L129.045,16.294 C128.733,16.039 128.393,15.812 128.053,15.614 C127.713,15.416 127.344,15.245 126.948,15.104 C126.579,14.934 126.183,14.821 125.786,14.707 C124.964,14.48 124.114,14.367 123.235,14.367 L117.027,14.367 C116.942,14.367 116.857,14.395 116.8,14.424 C116.743,14.424 116.715,14.452 116.658,14.509 C116.63,14.537 116.601,14.594 116.573,14.651 C116.573,14.708 116.545,14.793 116.545,14.849 L116.545,32.509 C116.545,32.679 116.602,32.792 116.687,32.821 C116.715,32.849 116.772,32.878 116.829,32.906 C116.886,32.906 116.971,32.934 117.027,32.934 L123.235,32.934 C123.689,32.934 124.114,32.906 124.539,32.849 C124.964,32.792 125.361,32.707 125.786,32.594 C126.183,32.481 126.58,32.367 126.977,32.226 C127.346,32.056 127.714,31.886 128.054,31.687 C128.422,31.489 128.763,31.29 129.074,31.063 C129.386,30.808 129.698,30.553 129.981,30.269 C130.264,29.986 130.548,29.702 130.803,29.39 C131.03,29.078 131.257,28.738 131.483,28.398 C131.681,28.058 131.88,27.718 132.022,27.349 C132.19,26.981 132.332,26.584 132.446,26.187 Z M121.22,28.512 L121.22,18.818 L121.22,18.705 L121.333,18.705 L123.005,18.705 C123.345,18.705 123.685,18.733 124.025,18.79 C124.365,18.847 124.677,18.96 124.989,19.073 C125.301,19.186 125.584,19.328 125.868,19.527 C126.123,19.697 126.378,19.896 126.605,20.094 C126.832,20.321 127.059,20.576 127.229,20.831 C127.427,21.086 127.569,21.37 127.711,21.681 C127.853,21.964 127.938,22.305 128.023,22.616 C128.08,22.956 128.108,23.296 128.108,23.665 C128.108,24.005 128.08,24.317 128.023,24.657 C127.966,24.969 127.881,25.252 127.768,25.536 C127.655,25.848 127.513,26.103 127.343,26.358 C127.173,26.613 127.003,26.84 126.776,27.067 C126.578,27.265 126.351,27.464 126.096,27.634 C125.869,27.804 125.586,27.946 125.331,28.088 C125.048,28.23 124.764,28.315 124.452,28.4 C124.169,28.485 123.857,28.542 123.517,28.542 C123.319,28.57 123.177,28.57 123.007,28.599 L122.979,28.599 C122.894,28.599 122.781,28.599 122.696,28.599 C122.583,28.627 122.498,28.627 122.384,28.627 L121.335,28.627 L121.222,28.627 L121.222,28.512 L121.22,28.512 Z M136.301,14.65 C136.301,14.707 136.273,14.763 136.273,14.848 L136.273,32.48 C136.273,32.565 136.301,32.622 136.301,32.678 C136.329,32.735 136.358,32.791 136.386,32.82 C136.443,32.848 136.471,32.877 136.528,32.905 C136.585,32.905 136.67,32.933 136.726,32.933 L149.51,32.933 C149.652,32.933 149.737,32.905 149.822,32.848 C149.879,32.82 149.907,32.735 149.907,32.65 L149.907,32.622 L149.935,32.594 C149.963,32.566 149.992,32.537 149.992,32.537 C150.02,32.509 150.02,32.48 150.02,32.452 L150.02,29.277 C150.02,28.965 149.85,28.795 149.566,28.795 L141.062,28.795 L140.977,28.795 L140.977,28.682 L140.977,25.479 L140.977,25.366 L141.062,25.366 L147.383,25.366 C147.468,25.366 147.525,25.366 147.581,25.338 C147.638,25.31 147.694,25.281 147.723,25.253 C147.78,25.168 147.836,25.055 147.836,24.97 L147.836,22.249 C147.836,22.164 147.808,22.107 147.808,22.051 C147.78,21.994 147.751,21.966 147.723,21.938 C147.666,21.91 147.638,21.881 147.581,21.881 C147.524,21.853 147.439,21.853 147.383,21.853 L141.062,21.853 L140.977,21.853 L140.977,21.74 L140.977,18.622 L140.977,18.509 L141.062,18.509 L149.254,18.509 C149.339,18.509 149.396,18.481 149.452,18.481 C149.509,18.453 149.565,18.396 149.622,18.339 C149.65,18.282 149.679,18.226 149.707,18.169 C149.735,18.112 149.735,18.056 149.735,17.999 L149.735,14.881 C149.735,14.796 149.735,14.739 149.707,14.654 C149.679,14.597 149.65,14.541 149.622,14.512 C149.537,14.427 149.424,14.37 149.254,14.37 L136.725,14.37 C136.64,14.37 136.583,14.398 136.527,14.398 C136.47,14.426 136.442,14.455 136.414,14.511 C136.357,14.537 136.329,14.593 136.301,14.65 Z" id="Shape"></path>
        </g>
    </g>
</svg>
